;FLAVOR:Marlin
;TIME:8833
;Filament used: 6.30757m
;Layer height: 0.2
;MINX:70.5
;MINY:46.412
;MINZ:0.2
;MAXX:164.5
;MAXY:188.61
;MAXZ:22
;MKSPREVIEWPROCESSED
; Postprocessed by [MKS WiFi plugin](https://github.com/Jeredian/mks-wifi-plugin)
; simage=0
; gimage=0
;Generated with Cura_SteamEngine 5.2.2
M140 S50
M105
M190 S50
M104 S200
M105
M109 S200
M82 ;absolute extrusion mode
; Ender 3 Custom Start G-code
G92 E0 ; Reset Extruder
G28 ; Home all axes
G29 ;
G1 Z2.0 F3000 ; Move Z Axis up little to prevent scratching of Heat Bed
G1 X0.1 Y20 Z0.3 F5000.0 ; Move to start position
G1 X0.1 Y200.0 Z0.3 F1500.0 E15 ; Draw the first line
G1 X0.4 Y200.0 Z0.3 F5000.0 ; Move to side a little
G1 X0.4 Y20 Z0.3 F1500.0 E30 ; Draw the second line
G92 E0 ; Reset Extruder
G1 Z2.0 F3000 ; Move Z Axis up little to prevent scratching of Heat Bed
G1 X5 Y20 Z0.3 F5000.0 ; Move over to prevent blob squish
G92 E0
G92 E0
G1 F2700 E-5
;LAYER_COUNT:110
;LAYER:0
M107
G0 F6000 X82.529 Y56.436 Z0.2
;TYPE:SKIRT
G1 F2700 E0
G1 F1200 X83.103 Y55.695 E0.03118
G1 X83.738 Y55.005 E0.06236
G1 X84.43 Y54.371 E0.09358
G1 X85.173 Y53.799 E0.12477
G1 X85.962 Y53.292 E0.15596
G1 X87.039 Y52.74 E0.19621
G1 X88.002 Y52.312 E0.23126
G1 X89.041 Y51.885 E0.26862
G1 X90.454 Y51.342 E0.31897
G1 X91.619 Y50.916 E0.36023
G1 X93.882 Y50.143 E0.43977
G1 X94.263 Y50.021 E0.45307
G1 X96.407 Y49.378 E0.52752
G1 X98.01 Y48.931 E0.58287
G1 X99.009 Y48.666 E0.61725
G1 X99.395 Y48.572 E0.63046
G1 X101.152 Y48.176 E0.69036
G1 X102.885 Y47.815 E0.74924
G1 X104.23 Y47.561 E0.79477
G1 X106.886 Y47.144 E0.88419
G1 X107.679 Y47.032 E0.91082
G1 X108.587 Y46.925 E0.94123
G1 X110.796 Y46.699 E1.01509
G1 X112.072 Y46.593 E1.05767
G1 X114.594 Y46.461 E1.14167
G1 X115.923 Y46.417 E1.1859
G1 X118.443 Y46.412 E1.26971
G1 X119.474 Y46.425 E1.30401
G1 X119.856 Y46.437 E1.31672
G1 X122.537 Y46.569 E1.406
G1 X123.737 Y46.654 E1.44601
G1 X126.258 Y46.908 E1.53028
G1 X127.608 Y47.072 E1.57551
G1 X130.364 Y47.494 E1.66825
G1 X131.419 Y47.676 E1.70386
G1 X132.088 Y47.808 E1.72654
G1 X134.22 Y48.254 E1.79898
G1 X135.192 Y48.471 E1.83211
G1 X136.146 Y48.7 E1.86474
G1 X137.191 Y48.973 E1.90066
G1 X138.265 Y49.271 E1.93773
G1 X140.545 Y49.95 E2.01686
G1 X141.69 Y50.316 E2.05684
G1 X142.876 Y50.718 E2.09849
G1 X143.942 Y51.11 E2.13627
G1 X145.938 Y51.876 E2.20737
G1 X147.219 Y52.404 E2.25346
G1 X147.885 Y52.694 E2.27762
G1 X148.728 Y53.104 E2.3088
G1 X149.533 Y53.585 E2.33999
G1 X150.294 Y54.133 E2.37118
G1 X151.006 Y54.744 E2.40238
G1 X151.663 Y55.413 E2.43357
G1 X152.261 Y56.136 E2.46477
G1 X152.795 Y56.907 E2.49597
G1 X153.261 Y57.721 E2.52716
G1 X153.656 Y58.571 E2.55834
G1 X153.978 Y59.452 E2.58954
G1 X154.225 Y60.366 E2.62103
G1 X154.342 Y60.902 E2.63927
G1 X156.155 Y70.065 E2.94995
G1 X156.315 Y70.94 E2.97953
G1 X156.436 Y71.794 E3.00822
G1 X156.513 Y72.563 E3.03392
G1 X164.408 Y163.371 E6.0656
G1 X164.46 Y164.078 E6.08918
G1 X164.489 Y164.717 E6.11046
G1 X164.498 Y165.305 E6.13002
G1 X164.5 Y172.968 E6.38489
G1 X164.489 Y173.852 E6.41429
G1 X164.462 Y174.492 E6.4356
G1 X164.402 Y175.184 E6.4587
G1 X164.354 Y175.605 E6.47279
G1 X164.208 Y176.532 E6.50401
G1 X164.025 Y177.297 E6.53017
G1 X163.838 Y177.95 E6.55276
G1 X163.7 Y178.388 E6.56803
G1 X163.38 Y179.269 E6.59921
G1 X162.972 Y180.147 E6.63141
G1 X162.597 Y180.862 E6.65826
G1 X162.416 Y181.189 E6.67069
G1 X161.927 Y181.99 E6.70191
G1 X161.45 Y182.647 E6.72891
G1 X161.046 Y183.151 E6.7504
G1 X160.781 Y183.466 E6.76409
G1 X160.148 Y184.158 E6.79528
G1 X159.363 Y184.871 E6.83055
G1 X158.764 Y185.365 E6.85638
G1 X158.015 Y185.931 E6.8876
G1 X157.221 Y186.431 E6.91881
G1 X156.694 Y186.732 E6.93899
G1 X156.156 Y187.022 E6.95932
G1 X155.308 Y187.423 E6.99052
G1 X154.433 Y187.75 E7.02159
G1 X154.021 Y187.884 E7.036
G1 X153.414 Y188.066 E7.05708
G1 X152.504 Y188.291 E7.08826
G1 X151.467 Y188.45 E7.12315
G1 X150.741 Y188.526 E7.14743
G1 X149.821 Y188.584 E7.17809
G1 X148.647 Y188.608 E7.21714
G1 X142.435 Y188.603 E7.42376
G1 X141.841 Y188.61 E7.44351
G1 X93.076 Y188.608 E9.06544
G1 X92.661 Y188.602 E9.07925
G1 X86.116 Y188.609 E9.29694
G1 X85.577 Y188.601 E9.31487
G1 X84.903 Y188.57 E9.33731
G1 X84.077 Y188.507 E9.36486
G1 X83.45 Y188.443 E9.38582
G1 X82.524 Y188.297 E9.417
G1 X81.651 Y188.082 E9.4469
G1 X81.222 Y187.958 E9.46176
G1 X80.616 Y187.768 E9.48288
G1 X79.736 Y187.443 E9.51408
G1 X78.881 Y187.039 E9.54553
G1 X78.481 Y186.829 E9.56056
G1 X77.9 Y186.507 E9.58265
G1 X77.104 Y186.012 E9.61383
G1 X76.503 Y185.572 E9.6386
G1 X75.897 Y185.095 E9.66425
G1 X75.186 Y184.484 E9.69543
G1 X74.252 Y183.494 E9.7407
G1 X73.756 Y182.899 E9.76647
G1 X73.186 Y182.154 E9.79767
G1 X72.665 Y181.332 E9.83004
G1 X72.275 Y180.632 E9.85669
G1 X72.033 Y180.164 E9.87421
G1 X71.638 Y179.313 E9.90542
G1 X71.319 Y178.437 E9.93642
G1 X71.175 Y177.983 E9.95226
G1 X70.992 Y177.357 E9.97396
G1 X70.775 Y176.445 E10.00514
G1 X70.658 Y175.707 E10.02999
G1 X70.583 Y175.036 E10.05245
G1 X70.548 Y174.621 E10.0663
G1 X70.513 Y174.007 E10.08675
G1 X70.5 Y173.378 E10.10768
G1 X70.5 Y166.251 E10.34472
G1 X70.51 Y164.814 E10.39252
G1 X70.533 Y164.178 E10.41369
G1 X70.582 Y163.461 E10.43759
G1 X78.494 Y72.494 E13.47459
G1 X78.565 Y71.789 E13.49815
G1 X78.694 Y70.887 E13.52846
G1 X78.822 Y70.196 E13.55183
G1 X80.392 Y62.344 E13.81816
G1 X80.704 Y60.719 E13.8732
G1 X80.92 Y59.806 E13.9044
G1 X81.213 Y58.915 E13.9356
G1 X81.58 Y58.053 E13.96676
G1 X82.02 Y57.224 E13.99797
G1 X82.529 Y56.436 E14.02917
G0 F6000 X82.904 Y56.599
G1 F1200 X83.474 Y55.876 E14.0598
G1 X84.105 Y55.205 E14.09043
G1 X84.791 Y54.591 E14.12105
G1 X85.528 Y54.039 E14.15168
G1 X86.31 Y53.553 E14.1823
G1 X87.202 Y53.106 E14.21549
G1 X88.465 Y52.55 E14.26138
G1 X89.185 Y52.258 E14.28723
G1 X90.598 Y51.715 E14.33757
G1 X91.965 Y51.218 E14.38595
G1 X94.011 Y50.521 E14.45784
G1 X94.378 Y50.404 E14.47065
G1 X96.311 Y49.823 E14.53779
G1 X98.256 Y49.279 E14.60496
G1 X99.483 Y48.962 E14.64711
G1 X101.233 Y48.568 E14.70677
G1 X103.118 Y48.176 E14.77081
G1 X104.292 Y47.956 E14.81054
G1 X106.942 Y47.54 E14.89976
G1 X107.735 Y47.428 E14.92639
G1 X108.628 Y47.322 E14.9563
G1 X110.683 Y47.111 E15.02501
G1 X111.712 Y47.019 E15.05937
G1 X112.093 Y46.992 E15.07208
G1 X114.615 Y46.86 E15.15607
G1 X115.549 Y46.824 E15.18716
G1 X115.924 Y46.817 E15.19964
G1 X118.444 Y46.812 E15.28345
G1 X119.469 Y46.825 E15.31755
G1 X119.836 Y46.837 E15.32976
G1 X122.511 Y46.968 E15.41884
G1 X123.697 Y47.052 E15.45838
G1 X126.218 Y47.306 E15.54265
G1 X127.548 Y47.467 E15.58721
G1 X130.135 Y47.862 E15.67425
G1 X131.063 Y48.018 E15.70555
G1 X132.006 Y48.2 E15.7375
G1 X134.133 Y48.645 E15.80977
G1 X135.287 Y48.904 E15.84911
G1 X136.25 Y49.139 E15.88208
G1 X137.084 Y49.359 E15.91077
G1 X138.347 Y49.711 E15.95438
G1 X140.424 Y50.331 E16.02647
G1 X141.563 Y50.695 E16.06624
G1 X142.456 Y50.994 E16.09756
G1 X143.799 Y51.484 E16.14511
G1 X145.795 Y52.25 E16.21622
G1 X147.059 Y52.77 E16.26168
G1 X147.725 Y53.06 E16.28584
G1 X148.552 Y53.464 E16.31645
G1 X149.341 Y53.938 E16.34706
G1 X150.086 Y54.479 E16.37769
G1 X150.782 Y55.083 E16.40834
G1 X151.422 Y55.744 E16.43894
G1 X152.003 Y56.459 E16.46958
G1 X152.519 Y57.221 E16.50019
G1 X152.967 Y58.025 E16.5308
G1 X153.344 Y58.865 E16.56143
G1 X153.646 Y59.735 E16.59206
G1 X153.835 Y60.454 E16.61678
G1 X153.949 Y60.98 E16.63468
G1 X155.793 Y70.306 E16.95087
G1 X155.921 Y71.011 E16.9747
G1 X156.038 Y71.835 E17.00239
G1 X156.1 Y72.446 E17.02281
G1 X164.009 Y163.4 E20.05937
G1 X164.061 Y164.107 E20.08295
G1 X164.089 Y164.723 E20.10346
G1 X164.098 Y165.311 E20.12302
G1 X164.1 Y172.968 E20.37769
G1 X164.089 Y173.847 E20.40693
G1 X164.063 Y174.464 E20.42747
G1 X164.005 Y175.139 E20.45
G1 X163.957 Y175.56 E20.46409
G1 X163.813 Y176.469 E20.4947
G1 X163.64 Y177.19 E20.51937
G1 X163.456 Y177.829 E20.54148
G1 X163.318 Y178.267 E20.55676
G1 X163.004 Y179.133 E20.58739
G1 X162.617 Y179.963 E20.61785
G1 X162.382 Y180.416 E20.63483
G1 X162.066 Y180.995 E20.65677
G1 X161.586 Y181.781 E20.6874
G1 X161.135 Y182.4 E20.71287
G1 X160.74 Y182.894 E20.73391
G1 X160.475 Y183.209 E20.7476
G1 X159.853 Y183.887 E20.7782
G1 X159.108 Y184.563 E20.81166
G1 X158.509 Y185.057 E20.83748
G1 X157.774 Y185.611 E20.8681
G1 X157.022 Y186.083 E20.89763
G1 X156.495 Y186.384 E20.91781
G1 X155.97 Y186.668 E20.93767
G1 X155.137 Y187.061 E20.9683
G1 X154.31 Y187.369 E20.99765
G1 X153.599 Y187.596 E21.02248
G1 X153.302 Y187.683 E21.03277
G1 X152.408 Y187.903 E21.06339
G1 X151.426 Y188.052 E21.09643
G1 X150.7 Y188.128 E21.12071
G1 X149.813 Y188.184 E21.15027
G1 X148.639 Y188.208 E21.18932
G1 X142.43 Y188.203 E21.39583
G1 X141.841 Y188.21 E21.41543
G1 X93.081 Y188.208 E23.03719
G1 X92.666 Y188.202 E23.05099
G1 X86.122 Y188.209 E23.26865
G1 X85.583 Y188.201 E23.28658
G1 X84.934 Y188.171 E23.30819
G1 X84.108 Y188.108 E23.33574
G1 X83.496 Y188.046 E23.3562
G1 X82.587 Y187.901 E23.38681
G1 X81.762 Y187.698 E23.41507
G1 X81.333 Y187.574 E23.42992
G1 X80.739 Y187.388 E23.45063
G1 X79.876 Y187.067 E23.48125
G1 X79.067 Y186.685 E23.51101
G1 X78.383 Y186.321 E23.53678
G1 X78.096 Y186.159 E23.54774
G1 X77.315 Y185.672 E23.57835
G1 X76.751 Y185.257 E23.60164
G1 X76.145 Y184.78 E23.62729
G1 X75.447 Y184.18 E23.65791
G1 X74.559 Y183.238 E23.70096
G1 X74.063 Y182.643 E23.72673
G1 X73.505 Y181.911 E23.75734
G1 X73.012 Y181.133 E23.78798
G1 X72.63 Y180.448 E23.81406
G1 X72.388 Y179.98 E23.83159
G1 X72.001 Y179.144 E23.86223
G1 X71.7 Y178.316 E23.89153
G1 X71.556 Y177.862 E23.90737
G1 X71.377 Y177.248 E23.92864
G1 X71.164 Y176.353 E23.95924
G1 X71.055 Y175.658 E23.98264
G1 X70.981 Y175.003 E24.00456
G1 X70.946 Y174.588 E24.01842
G1 X70.913 Y173.996 E24.03814
G1 X70.9 Y173.378 E24.0587
G1 X70.9 Y166.254 E24.29564
G1 X70.91 Y164.817 E24.34344
G1 X70.932 Y164.204 E24.36384
G1 X70.981 Y163.496 E24.38744
G1 X78.892 Y72.534 E27.42427
G1 X78.963 Y71.829 E27.44784
G1 X79.087 Y70.96 E27.47704
G1 X79.215 Y70.269 E27.50041
G1 X80.801 Y62.338 E27.76942
G1 X81.097 Y60.794 E27.82171
G1 X81.31 Y59.899 E27.85231
G1 X81.599 Y59.025 E27.88292
G1 X81.963 Y58.179 E27.91356
G1 X82.4 Y57.369 E27.94417
G1 X82.904 Y56.599 E27.97478
G0 F6000 X83.28 Y56.763
G1 F1200 X83.845 Y56.059 E28.0048
G1 X84.471 Y55.407 E28.03486
G1 X85.152 Y54.814 E28.0649
G1 X85.882 Y54.283 E28.09492
G1 X86.657 Y53.819 E28.12496
G1 X87.364 Y53.471 E28.15117
G1 X88.327 Y53.043 E28.18622
G1 X89.133 Y52.709 E28.21524
G1 X90.741 Y52.089 E28.27256
G1 X92.094 Y51.597 E28.32044
G1 X94.14 Y50.9 E28.39233
G1 X94.493 Y50.787 E28.40466
G1 X96.622 Y50.149 E28.47858
G1 X98.358 Y49.666 E28.53852
G1 X99.571 Y49.352 E28.58019
G1 X101.315 Y48.959 E28.63965
G1 X103.048 Y48.598 E28.69853
G1 X104.354 Y48.351 E28.74274
G1 X106.998 Y47.936 E28.83175
G1 X108.048 Y47.791 E28.86701
G1 X108.669 Y47.72 E28.8878
G1 X110.724 Y47.509 E28.95651
G1 X112.114 Y47.392 E29.0029
G1 X114.788 Y47.253 E29.09196
G1 X115.925 Y47.217 E29.12979
G1 X118.445 Y47.212 E29.21361
G1 X119.817 Y47.236 E29.25925
G1 X122.318 Y47.358 E29.34253
G1 X123.657 Y47.45 E29.38717
G1 X126.343 Y47.722 E29.47697
G1 X127.488 Y47.863 E29.51534
G1 X130.231 Y48.283 E29.60763
G1 X131.265 Y48.461 E29.64253
G1 X131.925 Y48.591 E29.6649
G1 X133.908 Y49.005 E29.73228
G1 X135.017 Y49.252 E29.77007
G1 X135.958 Y49.478 E29.80226
G1 X136.977 Y49.744 E29.83728
G1 X138.233 Y50.094 E29.88065
G1 X140.112 Y50.653 E29.94585
G1 X141.296 Y51.029 E29.98717
G1 X142.601 Y51.469 E30.03298
G1 X143.656 Y51.857 E30.07036
G1 X145.652 Y52.623 E30.14147
G1 X146.723 Y53.062 E30.17997
G1 X147.565 Y53.427 E30.21049
G1 X148.376 Y53.824 E30.24053
G1 X149.149 Y54.291 E30.27056
G1 X149.878 Y54.825 E30.30062
G1 X150.557 Y55.421 E30.33067
G1 X151.18 Y56.074 E30.36069
G1 X151.743 Y56.78 E30.39072
G1 X152.241 Y57.534 E30.42078
G1 X152.671 Y58.328 E30.45081
G1 X153.028 Y59.157 E30.48083
G1 X153.311 Y60.015 E30.51088
G1 X153.445 Y60.542 E30.52896
G1 X153.557 Y61.057 E30.54649
G1 X155.4 Y70.378 E30.86251
G1 X155.528 Y71.083 E30.88634
G1 X155.64 Y71.875 E30.91295
G1 X155.716 Y72.632 E30.93825
G1 X163.611 Y163.43 E33.9696
G1 X163.663 Y164.137 E33.99318
G1 X163.689 Y164.729 E34.01289
G1 X163.698 Y165.317 E34.03245
G1 X163.7 Y172.968 E34.28692
G1 X163.689 Y173.841 E34.31596
G1 X163.664 Y174.435 E34.33573
G1 X163.607 Y175.093 E34.3577
G1 X163.559 Y175.514 E34.37179
G1 X163.417 Y176.406 E34.40184
G1 X163.254 Y177.084 E34.42503
G1 X163.075 Y177.709 E34.44665
G1 X162.937 Y178.147 E34.46193
G1 X162.627 Y178.996 E34.49199
G1 X162.262 Y179.779 E34.52072
G1 X161.897 Y180.475 E34.54686
G1 X161.716 Y180.802 E34.55929
G1 X161.244 Y181.572 E34.58933
G1 X160.82 Y182.154 E34.61328
G1 X160.434 Y182.636 E34.63382
G1 X160.169 Y182.951 E34.64751
G1 X159.558 Y183.616 E34.67755
G1 X158.854 Y184.254 E34.70915
G1 X158.255 Y184.748 E34.73497
G1 X157.533 Y185.291 E34.76502
G1 X156.824 Y185.736 E34.79286
G1 X156.297 Y186.037 E34.81304
G1 X155.783 Y186.314 E34.83246
G1 X154.966 Y186.699 E34.8625
G1 X154.186 Y186.989 E34.89018
G1 X153.774 Y187.123 E34.90459
G1 X153.189 Y187.299 E34.92491
G1 X152.312 Y187.514 E34.95494
G1 X151.384 Y187.655 E34.98616
G1 X150.658 Y187.731 E35.01044
G1 X149.804 Y187.784 E35.0389
G1 X148.422 Y187.81 E35.08487
G1 X142.424 Y187.803 E35.28437
G1 X141.841 Y187.81 E35.30376
G1 X93.087 Y187.808 E36.92532
G1 X92.672 Y187.802 E36.93913
G1 X86.128 Y187.809 E37.15678
G1 X85.589 Y187.801 E37.17471
G1 X84.964 Y187.772 E37.19552
G1 X84.138 Y187.709 E37.22308
G1 X83.541 Y187.648 E37.24304
G1 X82.65 Y187.506 E37.27304
G1 X81.873 Y187.314 E37.29966
G1 X81.444 Y187.19 E37.31452
G1 X80.862 Y187.007 E37.33481
G1 X80.015 Y186.692 E37.36487
G1 X79.253 Y186.331 E37.39291
G1 X78.58 Y185.973 E37.41826
G1 X78.293 Y185.811 E37.42923
G1 X77.527 Y185.332 E37.45927
G1 X76.998 Y184.943 E37.48111
G1 X76.392 Y184.466 E37.50676
G1 X75.708 Y183.876 E37.53681
G1 X74.866 Y182.982 E37.57765
G1 X74.37 Y182.387 E37.60342
G1 X73.823 Y181.669 E37.63344
G1 X73.359 Y180.934 E37.66235
G1 X72.986 Y180.264 E37.68785
G1 X72.744 Y179.796 E37.70538
G1 X72.365 Y178.976 E37.73542
G1 X72.081 Y178.195 E37.76306
G1 X71.937 Y177.741 E37.77891
G1 X71.762 Y177.139 E37.79976
G1 X71.554 Y176.26 E37.8298
G1 X71.451 Y175.609 E37.85172
G1 X71.38 Y174.969 E37.87314
G1 X71.345 Y174.554 E37.88699
G1 X71.313 Y173.985 E37.90595
G1 X71.3 Y173.378 E37.92614
G1 X71.3 Y166.257 E38.16298
G1 X71.31 Y164.82 E38.21078
G1 X71.331 Y164.23 E38.23042
G1 X71.379 Y163.53 E38.25375
G1 X79.29 Y72.574 E41.29038
G1 X79.361 Y71.869 E41.31395
G1 X79.481 Y71.033 E41.34204
G1 X79.636 Y70.199 E41.37025
G1 X81.193 Y62.417 E41.63421
G1 X81.49 Y60.87 E41.68661
G1 X81.699 Y59.991 E41.71666
G1 X81.985 Y59.135 E41.74668
G1 X82.346 Y58.307 E41.77672
G1 X82.779 Y57.514 E41.80677
G1 X83.28 Y56.763 E41.8368
G1 F2700 E36.8368
G0 F6000 X80.789 Y165.542
G0 X89.633 Y176.896
G0 X90.214 Y177.477
G0 X90.908 Y177.915
G0 X91.684 Y178.186
G0 X92.457 Y178.273
G0 X142.537 Y178.274
G0 X143.316 Y178.186
G0 X144.092 Y177.915
G0 X144.786 Y177.477
G0 X145.367 Y176.896
G0 X149.7 Y169.09
G1 F2700 E41.8368
G1 F1200 X150.1 Y169.09 E41.8501
G1 X150.1 Y173.541 E41.99814
G1 X150.054 Y173.796 E42.00676
G1 X149.963 Y173.965 E42.01314
G1 X149.699 Y174.153 E42.02392
G1 X149.7 Y169.09 E42.19232
G0 F6000 X149.3 Y168.69
G1 F1200 X150.5 Y168.69 E42.23223
G1 X150.5 Y173.562 E42.39427
G1 X150.426 Y173.948 E42.40735
G1 X150.263 Y174.25 E42.41876
G1 X150.061 Y174.412 E42.42737
G1 X149.719 Y174.567 E42.43986
G1 X149.299 Y174.608 E42.4539
G1 X149.3 Y168.69 E42.65073
G0 F6000 X148.9 Y168.29
G1 F1200 X150.9 Y168.29 E42.71725
G1 X150.9 Y173.581 E42.89323
G1 X150.873 Y173.849 E42.90219
G1 X150.797 Y174.103 E42.91101
